static/img/kroki/7304e381e22466287b6cc9fb0c23e10e.svg

<?xml version="1.0" encoding="us-ascii" standalone="no"?><svg xmlns="http://www.w3.org/2000/svg" xmlns:xlink="http://www.w3.org/1999/xlink" contentStyleType="text/css" height="374px" preserveAspectRatio="none" style="width:345px;height:374px;" version="1.1" viewBox="0 0 345 374" width="345px" zoomAndPan="magnify"><defs/><g><!--class azure_cosmos_db_restorable_table--><g id="elem_azure_cosmos_db_restorable_table"><rect codeLine="23" fill="#3D176E" height="39.7891" id="azure_cosmos_db_restorable_table" rx="2.5" ry="2.5" style="stroke:#000D19;stroke-width:0.5;" width="331" x="7" y="328.58"/><ellipse cx="22" cy="348.4745" fill="#ADD1B2" rx="11" ry="11" style="stroke:#181818;stroke-width:1.0;"/><path d="M24.9688,354.1152 Q24.3906,354.412 23.75,354.5527 Q23.1094,354.7089 22.4063,354.7089 Q19.9063,354.7089 18.5781,353.0683 Q17.2656,351.412 17.2656,348.287 Q17.2656,345.162 18.5781,343.5058 Q19.9063,341.8495 22.4063,341.8495 Q23.1094,341.8495 23.75,342.0058 Q24.4063,342.162 24.9688,342.4589 L24.9688,345.1777 Q24.3438,344.5995 23.75,344.3339 Q23.1563,344.0527 22.5313,344.0527 Q21.1875,344.0527 20.5,345.1308 Q19.8125,346.1933 19.8125,348.287 Q19.8125,350.3808 20.5,351.4589 Q21.1875,352.5214 22.5313,352.5214 Q23.1563,352.5214 23.75,352.2558 Q24.3438,351.9745 24.9688,351.3964 L24.9688,354.1152 Z " fill="#000000"/><text fill="#D9B8FF" font-family="Helvetica" font-size="17" lengthAdjust="spacing" textLength="289" x="41" y="354.3598">azure_cosmos_db_restorable_table</text></g><!--class microsoft_resource--><g id="elem_microsoft_resource"><rect codeLine="26" fill="#3D176E" height="39.7891" id="microsoft_resource" rx="2.5" ry="2.5" style="stroke:#000D19;stroke-width:0.5;" width="200" x="72.5" y="167.79"/><ellipse cx="87.5" cy="187.6845" fill="#ADD1B2" rx="11" ry="11" style="stroke:#181818;stroke-width:1.0;"/><path d="M90.4688,193.3252 Q89.8906,193.622 89.25,193.7627 Q88.6094,193.9189 87.9063,193.9189 Q85.4063,193.9189 84.0781,192.2783 Q82.7656,190.622 82.7656,187.497 Q82.7656,184.372 84.0781,182.7158 Q85.4063,181.0595 87.9063,181.0595 Q88.6094,181.0595 89.25,181.2158 Q89.9063,181.372 90.4688,181.6689 L90.4688,184.3877 Q89.8438,183.8095 89.25,183.5439 Q88.6563,183.2627 88.0313,183.2627 Q86.6875,183.2627 86,184.3408 Q85.3125,185.4033 85.3125,187.497 Q85.3125,189.5908 86,190.6689 Q86.6875,191.7314 88.0313,191.7314 Q88.6563,191.7314 89.25,191.4658 Q89.8438,191.1845 90.4688,190.6064 L90.4688,193.3252 Z " fill="#000000"/><text fill="#D9B8FF" font-family="Helvetica" font-size="17" lengthAdjust="spacing" textLength="158" x="106.5" y="193.5698">microsoft_resource</text></g><!--class resource--><g id="elem_resource"><rect codeLine="29" fill="#3D176E" height="39.7891" id="resource" rx="2.5" ry="2.5" style="stroke:#000D19;stroke-width:0.5;" width="113" x="116" y="7"/><ellipse cx="131" cy="26.8945" fill="#ADD1B2" rx="11" ry="11" style="stroke:#181818;stroke-width:1.0;"/><path d="M133.9688,32.5352 Q133.3906,32.832 132.75,32.9727 Q132.1094,33.1289 131.4063,33.1289 Q128.9063,33.1289 127.5781,31.4883 Q126.2656,29.832 126.2656,26.707 Q126.2656,23.582 127.5781,21.9258 Q128.9063,20.2695 131.4063,20.2695 Q132.1094,20.2695 132.75,20.4258 Q133.4063,20.582 133.9688,20.8789 L133.9688,23.5977 Q133.3438,23.0195 132.75,22.7539 Q132.1563,22.4727 131.5313,22.4727 Q130.1875,22.4727 129.5,23.5508 Q128.8125,24.6133 128.8125,26.707 Q128.8125,28.8008 129.5,29.8789 Q130.1875,30.9414 131.5313,30.9414 Q132.1563,30.9414 132.75,30.6758 Q133.3438,30.3945 133.9688,29.8164 L133.9688,32.5352 Z " fill="#000000"/><text fill="#D9B8FF" font-family="Helvetica" font-size="17" lengthAdjust="spacing" textLength="71" x="150" y="32.7798">resource</text></g><!--reverse link microsoft_resource to azure_cosmos_db_restorable_table--><g id="link_microsoft_resource_azure_cosmos_db_restorable_table"><path codeLine="32" d="M172.5,225.84 C172.5,256.36 172.5,297.69 172.5,328.25 " fill="none" id="microsoft_resource-backto-azure_cosmos_db_restorable_table" style="stroke:#FFAF37;stroke-width:2.0;"/><polygon fill="none" points="172.5,207.84,166.5,225.84,178.5,225.84,172.5,207.84" style="stroke:#FFAF37;stroke-width:2.0;"/></g><!--reverse link resource to microsoft_resource--><g id="link_resource_microsoft_resource"><path codeLine="33" d="M172.5,65.05 C172.5,95.57 172.5,136.9 172.5,167.46 " fill="none" id="resource-backto-microsoft_resource" style="stroke:#FFAF37;stroke-width:2.0;"/><polygon fill="none" points="172.5,47.05,166.5,65.05,178.5,65.05,172.5,47.05" style="stroke:#FFAF37;stroke-width:2.0;"/></g><!--SRC=[XT1DJm8n40RW-_wA9fn9GA90uWL9Z5w84U-RsNOA3TiEcSvAGFtlkeAcxF9nwM7coSmxNJg32lrQjigZBv1Z5bSkh871gmapRQPK4gkEjM07msRpaO9S1JFmg9wmV4Tn6fhYRUdqAc2CwYPfFO1UBPYgOFRZXI74dnO6ITIqX1Wd8koAIZ09OyR5oDgcR0xj34n_U8SjHcoG3wJNwvd-k4ckhhfuzx-OknsgVlffCn9inMoj-5KNKzOY2TawzAz_DkCB6EF2GjqcjTTz9Wx8H_Nv4WnjQcsXZEcQACX8ibtZj7KLZaV63a_YvtCuq_NNATXLZBccw2dcfiWPen13KM8kzQi-ikphOBtJJ96ir8egraVTuze9U__PxNQlBimQlZqe-mO0]--></g></svg>

<svg xmlns="http://www.w3.org/2000/svg" width="345" height="374" viewBox="0 0 345 374"><rect width="331" height="39.789" x="7" y="328.58" fill="#3D176E" rx="2.5" ry="2.5" style="stroke:#000d19;stroke-width:.5"/><circle cx="22" cy="348.474" r="11" fill="#ADD1B2" style="stroke:#181818;stroke-width:1"/><path d="M24.969 354.115q-.578.297-1.219.438-.64.156-1.344.156-2.5 0-3.828-1.64-1.312-1.657-1.312-4.782t1.312-4.781q1.328-1.656 3.828-1.656.703 0 1.344.156.656.156 1.219.453v2.719q-.625-.579-1.219-.844-.594-.281-1.219-.281-1.343 0-2.031 1.078-.687 1.062-.687 3.156t.687 3.172q.688 1.062 2.031 1.062.625 0 1.219-.265.594-.281 1.219-.86z"/><text x="41" y="354.36" fill="#D9B8FF" font-family="Helvetica" font-size="17" textLength="289">azure_cosmos_db_restorable_table</text><rect width="200" height="39.789" x="72.5" y="167.79" fill="#3D176E" rx="2.5" ry="2.5" style="stroke:#000d19;stroke-width:.5"/><circle cx="87.5" cy="187.685" r="11" fill="#ADD1B2" style="stroke:#181818;stroke-width:1"/><path d="M90.469 193.325q-.578.297-1.219.438-.64.156-1.344.156-2.5 0-3.828-1.64-1.312-1.657-1.312-4.782t1.312-4.781q1.328-1.656 3.828-1.656.703 0 1.344.156.656.156 1.219.453v2.719q-.625-.578-1.219-.844-.594-.281-1.219-.281-1.344 0-2.031 1.078-.687 1.062-.687 3.156t.687 3.172q.688 1.062 2.031 1.062.625 0 1.219-.265.594-.281 1.219-.86z"/><text x="106.5" y="193.57" fill="#D9B8FF" font-family="Helvetica" font-size="17" textLength="158">microsoft_resource</text><rect width="113" height="39.789" x="116" y="7" fill="#3D176E" rx="2.5" ry="2.5" style="stroke:#000d19;stroke-width:.5"/><circle cx="131" cy="26.895" r="11" fill="#ADD1B2" style="stroke:#181818;stroke-width:1"/><path d="M133.969 32.535q-.578.297-1.219.438-.64.156-1.344.156-2.5 0-3.828-1.64-1.312-1.657-1.312-4.782t1.312-4.781q1.328-1.656 3.828-1.656.703 0 1.344.156.656.156 1.219.453v2.719q-.625-.578-1.219-.844-.594-.281-1.219-.281-1.344 0-2.031 1.078-.687 1.062-.687 3.156t.687 3.172q.688 1.062 2.031 1.062.625 0 1.219-.265.594-.281 1.219-.86z"/><text x="150" y="32.78" fill="#D9B8FF" font-family="Helvetica" font-size="17" textLength="71">resource</text><path fill="none" d="M172.5 225.84v102.41m0-120.41-6 18h12zm0-142.79v102.41m0-120.41-6 18h12z" style="stroke:#ffaf37;stroke-width:2"/></svg>
